src/pos-icons/arrow-up-circle.svg

<svg height="24" viewBox="0 0 24 24" width="24" xmlns="http://www.w3.org/2000/svg"><path d="m13 18v-8l3.5 3.5 1.42-1.42-5.92-5.92-5.92 5.92 1.42 1.42 3.5-3.5v8zm-1-16a10 10 0 0 1 10 10 10 10 0 0 1 -10 10 10 10 0 0 1 -10-10 10 10 0 0 1 10-10z"/></svg>

<?xml version="1.0" encoding="UTF-8"?><!DOCTYPE svg PUBLIC "-//W3C//DTD SVG 1.1//EN" "http://www.w3.org/Graphics/SVG/1.1/DTD/svg11.dtd"><svg xmlns="http://www.w3.org/2000/svg" xmlns:xlink="http://www.w3.org/1999/xlink" version="1.1" id="mdi-arrow-up-circle" width="24" height="24" viewBox="0 0 24 24"><path d="M13,18V10L16.5,13.5L17.92,12.08L12,6.16L6.08,12.08L7.5,13.5L11,10V18H13M12,2A10,10 0 0,1 22,12A10,10 0 0,1 12,22A10,10 0 0,1 2,12A10,10 0 0,1 12,2Z" /></svg>
